tutor/resources/images/icons/best-practices.svg

<?xml version="1.0" encoding="UTF-8"?>
<svg width="123px" height="18px" viewBox="0 0 123 18" version="1.1" xmlns="http://www.w3.org/2000/svg" xmlns:xlink="http://www.w3.org/1999/xlink">
    <!-- Generator: Sketch 42 (36781) - http://www.bohemiancoding.com/sketch -->
    <title>BEST PRACTICE font awesome</title>
    <desc>Created with Sketch.</desc>
    <defs></defs>
    <g id="Symbols" stroke="none" stroke-width="1" fill="none" fill-rule="evenodd">
        <g id="BEST-PRACTICE-font-awesome" fill="#EDAA00">
            <path d="M22.938,9.475 L25.005,9.475 C25.3690018,9.475 25.6679988,9.3883342 25.902,9.215 C26.1360012,9.0416658 26.253,8.76000195 26.253,8.37 C26.253,8.15333225 26.2140004,7.97566736 26.136,7.837 C26.0579996,7.69833264 25.9540007,7.59000039 25.824,7.512 C25.6939994,7.43399961 25.5445008,7.37983348 25.3755,7.3495 C25.2064992,7.31916651 25.0310009,7.304 24.849,7.304 L22.938,7.304 L22.938,9.475 Z M20.897,5.718 L25.265,5.718 C25.7070022,5.718 26.1099982,5.75699961 26.474,5.835 C26.8380018,5.91300039 27.1499987,6.04083244 27.41,6.2185 C27.6700013,6.39616755 27.8714993,6.63233186 28.0145,6.927 C28.1575007,7.22166814 28.229,7.5856645 28.229,8.019 C28.229,8.48700234 28.1228344,8.87699844 27.9105,9.189 C27.6981656,9.50100156 27.3840021,9.75666567 26.968,9.956 C27.5400029,10.1206675 27.9668319,10.4088313 28.2485,10.8205 C28.5301681,11.2321687 28.671,11.7283304 28.671,12.309 C28.671,12.7770023 28.5800009,13.182165 28.398,13.5245 C28.2159991,13.866835 27.9711682,14.1463323 27.6635,14.363 C27.3558318,14.5796677 27.0048353,14.7399995 26.6105,14.844 C26.2161647,14.9480005 25.8110021,15 25.395,15 L20.897,15 L20.897,5.718 Z M22.938,13.414 L25.122,13.414 C25.3213343,13.414 25.5119991,13.3945002 25.694,13.3555 C25.8760009,13.3164998 26.0363326,13.2515005 26.175,13.1605 C26.3136674,13.0694995 26.4241663,12.9460008 26.5065,12.79 C26.5888337,12.6339992 26.63,12.4346679 26.63,12.192 C26.63,11.715331 26.495668,11.3751677 26.227,11.1715 C25.958332,10.9678323 25.6030022,10.866 25.161,10.866 L22.938,10.866 L22.938,13.414 Z M30.049,5.718 L30.049,15 L37.095,15 L37.095,13.284 L32.09,13.284 L32.09,11.009 L36.588,11.009 L36.588,9.423 L32.09,9.423 L32.09,7.434 L36.991,7.434 L36.991,5.718 L30.049,5.718 Z M39.864,11.919 L37.888,11.919 C37.8793333,12.4910029 37.9833323,12.9849979 38.2,13.401 C38.4166678,13.8170021 38.7091648,14.159332 39.0775,14.428 C39.4458352,14.696668 39.8704976,14.8938327 40.3515,15.0195 C40.8325024,15.1451673 41.3286641,15.208 41.84,15.208 C42.4726698,15.208 43.0294976,15.1343341 43.5105,14.987 C43.9915024,14.8396659 44.3944984,14.6338347 44.7195,14.3695 C45.0445016,14.1051653 45.2893325,13.7910018 45.454,13.427 C45.6186675,13.0629982 45.701,12.6686688 45.701,12.244 C45.701,11.7239974 45.5905011,11.2971683 45.3695,10.9635 C45.1484989,10.6298317 44.8863349,10.3633343 44.583,10.164 C44.2796652,9.96466567 43.9741682,9.81950046 43.6665,9.7285 C43.3588318,9.63749954 43.1183342,9.57466684 42.945,9.54 C42.3643304,9.39266593 41.8941685,9.27133381 41.5345,9.176 C41.1748315,9.08066619 40.8931677,8.98533381 40.6895,8.89 C40.4858323,8.79466619 40.3493337,8.69066723 40.28,8.578 C40.2106663,8.46533277 40.176,8.31800091 40.176,8.136 C40.176,7.93666567 40.2193329,7.77200065 40.306,7.642 C40.3926671,7.51199935 40.503166,7.4036671 40.6375,7.317 C40.771834,7.2303329 40.9213325,7.16966684 41.086,7.135 C41.2506675,7.10033316 41.4153325,7.083 41.58,7.083 C41.8313346,7.083 42.0631656,7.10466645 42.2755,7.148 C42.4878344,7.19133355 42.6763325,7.26499948 42.841,7.369 C43.0056675,7.47300052 43.1378328,7.61599909 43.2375,7.798 C43.3371672,7.98000091 43.3956666,8.20966528 43.413,8.487 L45.389,8.487 C45.389,7.94966398 45.2871677,7.49250188 45.0835,7.1155 C44.8798323,6.73849811 44.6046684,6.42866788 44.258,6.186 C43.9113316,5.94333212 43.5148356,5.76783387 43.0685,5.6595 C42.6221644,5.55116612 42.1563358,5.497 41.671,5.497 C41.2549979,5.497 40.8390021,5.55333277 40.423,5.666 C40.0069979,5.77866723 39.634335,5.95199883 39.305,6.186 C38.975665,6.42000117 38.7091677,6.71249824 38.5055,7.0635 C38.3018323,7.41450175 38.2,7.82833095 38.2,8.305 C38.2,8.72966879 38.2801659,9.09149851 38.4405,9.3905 C38.6008341,9.68950149 38.8109987,9.93866567 39.071,10.138 C39.3310013,10.3373343 39.625665,10.4998327 39.955,10.6255 C40.284335,10.7511673 40.6223316,10.8573329 40.969,10.944 C41.3070017,11.0393338 41.640665,11.1259996 41.97,11.204 C42.299335,11.2820004 42.5939987,11.3729995 42.854,11.477 C43.1140013,11.5810005 43.3241659,11.7109992 43.4845,11.867 C43.6448341,12.0230008 43.725,12.2266654 43.725,12.478 C43.725,12.7120012 43.6643339,12.9048326 43.543,13.0565 C43.4216661,13.2081674 43.2700009,13.3273329 43.088,13.414 C42.9059991,13.5006671 42.711001,13.5591665 42.503,13.5895 C42.294999,13.6198335 42.1000009,13.635 41.918,13.635 C41.649332,13.635 41.3893346,13.6025003 41.138,13.5375 C40.8866654,13.4724997 40.6678343,13.372834 40.4815,13.2385 C40.2951657,13.104166 40.1456672,12.9286677 40.033,12.712 C39.9203328,12.4953323 39.864,12.2310016 39.864,11.919 Z M48.964,7.434 L48.964,15 L51.005,15 L51.005,7.434 L53.787,7.434 L53.787,5.718 L46.182,5.718 L46.182,7.434 L48.964,7.434 Z M59.819,10.164 L62.237,10.164 C62.9390035,10.1726667 63.4524984,10.0296681 63.7775,9.735 C64.1025016,9.44033186 64.265,9.01566944 64.265,8.461 C64.265,7.90633056 64.1025016,7.48383478 63.7775,7.1935 C63.4524984,6.90316521 62.9390035,6.758 62.237,6.758 L59.819,6.758 L59.819,10.164 Z M58.584,5.718 L62.653,5.718 C63.5890047,5.718 64.2974976,5.95849759 64.7785,6.4395 C65.2595024,6.92050241 65.5,7.594329 65.5,8.461 C65.5,9.327671 65.2595024,10.0036642 64.7785,10.489 C64.2974976,10.9743358 63.5890047,11.2126667 62.653,11.204 L59.819,11.204 L59.819,15 L58.584,15 L58.584,5.718 Z M67.008,5.718 L71.376,5.718 C72.2600044,5.718 72.9511642,5.9346645 73.4495,6.368 C73.9478358,6.8013355 74.197,7.39499623 74.197,8.149 C74.197,8.71233615 74.0691679,9.20633121 73.8135,9.631 C73.5578321,10.0556688 73.1483361,10.3459992 72.585,10.502 L72.585,10.528 C72.853668,10.5800003 73.0724992,10.6666661 73.2415,10.788 C73.4105008,10.9093339 73.5448328,11.0544992 73.6445,11.2235 C73.7441672,11.3925008 73.8178331,11.580999 73.8655,11.789 C73.9131669,11.997001 73.9499999,12.2136655 73.976,12.439 C73.9933334,12.6643345 74.0063333,12.8939988 74.015,13.128 C74.0236667,13.3620012 74.0453332,13.5916655 74.08,13.817 C74.1146668,14.0423345 74.1644997,14.2568323 74.2295,14.4605 C74.2945003,14.6641677 74.3919993,14.8439992 74.522,15 L73.144,15 C73.0573329,14.9046662 72.9988335,14.7746675 72.9685,14.61 C72.9381665,14.4453325 72.9186667,14.2611677 72.91,14.0575 C72.9013333,13.8538323 72.8926667,13.6350012 72.884,13.401 C72.8753333,13.1669988 72.8493335,12.9373345 72.806,12.712 C72.7713332,12.4866655 72.7280003,12.2721677 72.676,12.0685 C72.6239997,11.8648323 72.5416672,11.6871674 72.429,11.5355 C72.3163328,11.3838326 72.1690009,11.2625005 71.987,11.1715 C71.8049991,11.0804995 71.5623348,11.035 71.259,11.035 L68.243,11.035 L68.243,15 L67.008,15 L67.008,5.718 Z M70.817,9.995 C71.1030014,9.995 71.3759987,9.97333355 71.636,9.93 C71.8960013,9.88666645 72.123499,9.8021673 72.3185,9.6765 C72.513501,9.5508327 72.6694994,9.38183439 72.7865,9.1695 C72.9035006,8.95716561 72.962,8.68200169 72.962,8.344 C72.962,7.87599766 72.8320013,7.49466814 72.572,7.2 C72.3119987,6.90533186 71.8916696,6.758 71.311,6.758 L68.243,6.758 L68.243,9.995 L70.817,9.995 Z M77.512,11.165 L80.658,11.165 L79.111,6.836 L79.085,6.836 L77.512,11.165 Z M78.435,5.718 L79.8,5.718 L83.427,15 L82.062,15 L81.048,12.205 L77.122,12.205 L76.082,15 L74.821,15 L78.435,5.718 Z M90.863,8.513 L92.098,8.513 C92.0286663,8.01899753 91.8813345,7.58350188 91.656,7.2065 C91.4306655,6.82949811 91.1490017,6.51533459 90.811,6.264 C90.4729983,6.01266541 90.0873355,5.82200065 89.654,5.692 C89.2206645,5.56199935 88.7613358,5.497 88.276,5.497 C87.5653298,5.497 86.9348361,5.62483205 86.3845,5.8805 C85.8341639,6.13616795 85.3748352,6.48499779 85.0065,6.927 C84.6381648,7.36900221 84.3586676,7.88683036 84.168,8.4805 C83.9773324,9.07416963 83.882,9.70899662 83.882,10.385 C83.882,11.0610034 83.9708324,11.6936637 84.1485,12.283 C84.3261676,12.8723363 84.5926649,13.3836645 84.948,13.817 C85.3033351,14.2503355 85.749664,14.5904988 86.287,14.8375 C86.824336,15.0845012 87.4526631,15.208 88.172,15.208 C89.3593393,15.208 90.2953299,14.8830032 90.98,14.233 C91.6646701,13.5829967 92.0676661,12.6730058 92.189,11.503 L90.954,11.503 C90.9279999,11.8843352 90.8500006,12.239665 90.72,12.569 C90.5899993,12.898335 90.4101678,13.1821655 90.1805,13.4205 C89.9508322,13.6588345 89.6778349,13.845166 89.3615,13.9795 C89.0451651,14.113834 88.6833354,14.181 88.276,14.181 C87.7213306,14.181 87.2446687,14.077001 86.846,13.869 C86.4473313,13.660999 86.1201679,13.3815018 85.8645,13.0305 C85.6088321,12.6794982 85.4203339,12.2678357 85.299,11.7955 C85.1776661,11.3231643 85.117,10.8226693 85.117,10.294 C85.117,9.80866424 85.1776661,9.34066892 85.299,8.89 C85.4203339,8.43933108 85.6088321,8.03850175 85.8645,7.6875 C86.1201679,7.33649824 86.4451647,7.05700104 86.8395,6.849 C87.2338353,6.64099896 87.7083306,6.537 88.263,6.537 C88.9130032,6.537 89.4741643,6.70166502 89.9465,7.031 C90.4188357,7.36033498 90.7243326,7.85433004 90.863,8.513 Z M95.829,6.758 L95.829,15 L97.064,15 L97.064,6.758 L100.158,6.758 L100.158,5.718 L92.735,5.718 L92.735,6.758 L95.829,6.758 Z M101.237,5.718 L101.237,15 L102.472,15 L102.472,5.718 L101.237,5.718 Z M111.078,8.513 L112.313,8.513 C112.243666,8.01899753 112.096334,7.58350188 111.871,7.2065 C111.645666,6.82949811 111.364002,6.51533459 111.026,6.264 C110.687998,6.01266541 110.302335,5.82200065 109.869,5.692 C109.435664,5.56199935 108.976336,5.497 108.491,5.497 C107.78033,5.497 107.149836,5.62483205 106.5995,5.8805 C106.049164,6.13616795 105.589835,6.48499779 105.2215,6.927 C104.853165,7.36900221 104.573668,7.88683036 104.383,8.4805 C104.192332,9.07416963 104.097,9.70899662 104.097,10.385 C104.097,11.0610034 104.185832,11.6936637 104.3635,12.283 C104.541168,12.8723363 104.807665,13.3836645 105.163,13.817 C105.518335,14.2503355 105.964664,14.5904988 106.502,14.8375 C107.039336,15.0845012 107.667663,15.208 108.387,15.208 C109.574339,15.208 110.51033,14.8830032 111.195,14.233 C111.87967,13.5829967 112.282666,12.6730058 112.404,11.503 L111.169,11.503 C111.143,11.8843352 111.065001,12.239665 110.935,12.569 C110.804999,12.898335 110.625168,13.1821655 110.3955,13.4205 C110.165832,13.6588345 109.892835,13.845166 109.5765,13.9795 C109.260165,14.113834 108.898335,14.181 108.491,14.181 C107.936331,14.181 107.459669,14.077001 107.061,13.869 C106.662331,13.660999 106.335168,13.3815018 106.0795,13.0305 C105.823832,12.6794982 105.635334,12.2678357 105.514,11.7955 C105.392666,11.3231643 105.332,10.8226693 105.332,10.294 C105.332,9.80866424 105.392666,9.34066892 105.514,8.89 C105.635334,8.43933108 105.823832,8.03850175 106.0795,7.6875 C106.335168,7.33649824 106.660165,7.05700104 107.0545,6.849 C107.448835,6.64099896 107.923331,6.537 108.478,6.537 C109.128003,6.537 109.689164,6.70166502 110.1615,7.031 C110.633836,7.36033498 110.939333,7.85433004 111.078,8.513 Z M113.938,5.718 L113.938,15 L120.386,15 L120.386,13.96 L115.173,13.96 L115.173,10.749 L119.996,10.749 L119.996,9.709 L115.173,9.709 L115.173,6.758 L120.347,6.758 L120.347,5.718 L113.938,5.718 Z" id="BEST-PRACTICE"></path>
            <text id="thumbs-up---FontAwesome" font-family="FontAwesome" font-size="16" font-weight="normal">
                <tspan x="1" y="14"></tspan>
            </text>
        </g>
    </g>
</svg>

<svg viewBox="0 0 123 18" xmlns="http://www.w3.org/2000/svg" fill-rule="evenodd" clip-rule="evenodd" stroke-linejoin="round" stroke-miterlimit="1.414"><g fill="#edaa00"><path d="M22.938 9.475h2.067c.364 0 .663-.087.897-.26.234-.173.351-.455.351-.845 0-.217-.039-.394-.117-.533a.863.863 0 0 0-.312-.325 1.305 1.305 0 0 0-.448-.162 2.927 2.927 0 0 0-.527-.046h-1.911v2.171zm-2.041-3.757h4.368c.442 0 .845.039 1.209.117.364.078.676.206.936.384.26.177.461.413.605.708.143.295.214.659.214 1.092 0 .468-.106.858-.318 1.17-.213.312-.527.568-.943.767.572.165.999.453 1.281.865.281.411.422.907.422 1.488 0 .468-.091.873-.273 1.216a2.378 2.378 0 0 1-.734.838 3.25 3.25 0 0 1-1.053.481c-.395.104-.8.156-1.216.156h-4.498V5.718zm2.041 7.696h2.184c.199 0 .39-.019.572-.058.182-.04.342-.104.481-.195a.994.994 0 0 0 .332-.371 1.28 1.28 0 0 0 .123-.598c0-.477-.134-.817-.403-1.02-.269-.204-.624-.306-1.066-.306h-2.223v2.548zm7.111-7.696V15h7.046v-1.716H32.09v-2.275h4.498V9.423H32.09V7.434h4.901V5.718h-6.942zm9.815 6.201h-1.976c-.009.572.095 1.066.312 1.482.217.416.509.758.878 1.027.368.269.792.466 1.274.592.481.125.977.188 1.488.188.633 0 1.189-.074 1.671-.221a3.541 3.541 0 0 0 1.209-.617 2.58 2.58 0 0 0 .734-.943 2.83 2.83 0 0 0 .247-1.183c0-.52-.11-.947-.331-1.28a2.78 2.78 0 0 0-.787-.8 3.468 3.468 0 0 0-.916-.435 8.676 8.676 0 0 0-.722-.189c-.581-.147-1.051-.269-1.41-.364a5.198 5.198 0 0 1-.845-.286c-.204-.095-.341-.199-.41-.312a.838.838 0 0 1-.104-.442.87.87 0 0 1 .13-.494 1.13 1.13 0 0 1 .332-.325c.134-.087.283-.147.448-.182a2.37 2.37 0 0 1 .494-.052c.251 0 .483.022.696.065.212.043.4.117.565.221.165.104.297.247.397.429.099.182.158.412.175.689h1.976c0-.537-.102-.994-.305-1.371a2.66 2.66 0 0 0-.826-.93 3.475 3.475 0 0 0-1.189-.526 5.88 5.88 0 0 0-1.398-.163c-.416 0-.832.056-1.248.169a3.488 3.488 0 0 0-1.118.52 2.754 2.754 0 0 0-.799.878c-.204.351-.306.764-.306 1.241 0 .425.08.786.241 1.086.16.299.37.548.63.747.26.199.555.362.884.488.329.125.667.231 1.014.318.338.095.672.182 1.001.26.329.078.624.169.884.273.26.104.47.234.631.39.16.156.24.36.24.611a.901.901 0 0 1-.182.579c-.121.151-.273.27-.455.357a2.047 2.047 0 0 1-.585.176 4.11 4.11 0 0 1-.585.045c-.269 0-.529-.032-.78-.097a1.965 1.965 0 0 1-.656-.299 1.48 1.48 0 0 1-.449-.527c-.113-.217-.169-.481-.169-.793zm9.1-4.485V15h2.041V7.434h2.782V5.718h-7.605v1.716h2.782zm10.855 2.73h2.418c.702.009 1.215-.134 1.541-.429.325-.295.487-.719.487-1.274s-.162-.977-.487-1.267c-.326-.291-.839-.436-1.541-.436h-2.418v3.406zm-1.235-4.446h4.069c.936 0 1.644.24 2.126.722.481.481.721 1.154.721 2.021s-.24 1.543-.722 2.028c-.481.485-1.189.724-2.125.715h-2.834V15h-1.235V5.718zm8.424 0h4.368c.884 0 1.575.217 2.073.65.499.433.748 1.027.748 1.781 0 .563-.128 1.057-.383 1.482-.256.425-.666.715-1.229.871v.026c.269.052.487.139.656.26a1.4 1.4 0 0 1 .403.435c.1.17.174.358.221.566.048.208.085.425.111.65.017.225.03.455.039.689.009.234.03.464.065.689.035.225.084.44.149.643.066.204.163.384.293.54h-1.378a.776.776 0 0 1-.176-.39 4.125 4.125 0 0 1-.058-.553l-.026-.656a4.612 4.612 0 0 0-.078-.689 6.912 6.912 0 0 0-.13-.644 1.511 1.511 0 0 0-.247-.533 1.239 1.239 0 0 0-.442-.364c-.182-.091-.425-.136-.728-.136h-3.016V15h-1.235V5.718zm3.809 4.277c.286 0 .559-.022.819-.065.26-.043.487-.128.682-.254a1.37 1.37 0 0 0 .468-.507c.118-.212.176-.487.176-.825 0-.468-.13-.849-.39-1.144-.26-.295-.68-.442-1.261-.442h-3.068v3.237h2.574zm6.695 1.17h3.146l-1.547-4.329h-.026l-1.573 4.329zm.923-5.447H79.8L83.427 15h-1.365l-1.014-2.795h-3.926L76.082 15h-1.261l3.614-9.282zm12.428 2.795h1.235a3.462 3.462 0 0 0-.442-1.307 3.204 3.204 0 0 0-.845-.942 3.715 3.715 0 0 0-1.157-.572 4.771 4.771 0 0 0-1.378-.195c-.711 0-1.341.128-1.892.383a3.923 3.923 0 0 0-1.378 1.047c-.368.442-.647.96-.838 1.553a6.187 6.187 0 0 0-.286 1.905c0 .676.089 1.309.266 1.898.178.589.445 1.101.8 1.534.355.433.802.773 1.339 1.02.537.248 1.166.371 1.885.371 1.187 0 2.123-.325 2.808-.975.685-.65 1.088-1.56 1.209-2.73h-1.235a3.542 3.542 0 0 1-.234 1.066c-.13.329-.31.613-.54.851a2.43 2.43 0 0 1-.819.559 2.74 2.74 0 0 1-1.085.202c-.555 0-1.031-.104-1.43-.312a2.786 2.786 0 0 1-.982-.839 3.591 3.591 0 0 1-.565-1.235 6.022 6.022 0 0 1-.182-1.501c0-.485.061-.953.182-1.404.121-.451.31-.851.565-1.203.256-.351.581-.63.975-.838.395-.208.869-.312 1.424-.312.65 0 1.211.165 1.683.494.473.329.778.823.917 1.482zm4.966-1.755V15h1.235V6.758h3.094v-1.04h-7.423v1.04h3.094zm5.408-1.04V15h1.235V5.718h-1.235zm9.841 2.795h1.235a3.462 3.462 0 0 0-.442-1.307 3.204 3.204 0 0 0-.845-.942 3.715 3.715 0 0 0-1.157-.572 4.771 4.771 0 0 0-1.378-.195c-.711 0-1.341.128-1.892.383a3.923 3.923 0 0 0-1.378 1.047c-.368.442-.647.96-.838 1.553a6.187 6.187 0 0 0-.286 1.905c0 .676.089 1.309.266 1.898.178.589.445 1.101.8 1.534.355.433.802.773 1.339 1.02.537.248 1.166.371 1.885.371 1.187 0 2.123-.325 2.808-.975.685-.65 1.088-1.56 1.209-2.73h-1.235a3.542 3.542 0 0 1-.234 1.066c-.13.329-.31.613-.54.851a2.43 2.43 0 0 1-.819.559 2.74 2.74 0 0 1-1.085.202c-.555 0-1.031-.104-1.43-.312a2.786 2.786 0 0 1-.982-.839 3.591 3.591 0 0 1-.565-1.235 6.022 6.022 0 0 1-.182-1.501c0-.485.061-.953.182-1.404.121-.451.31-.851.565-1.203.256-.351.581-.63.975-.838.395-.208.869-.312 1.424-.312.65 0 1.211.165 1.683.494.473.329.778.823.917 1.482zm2.86-2.795V15h6.448v-1.04h-5.213v-3.211h4.823v-1.04h-4.823V6.758h5.174v-1.04h-6.409z"/><path d="M3 14.25a.718.718 0 0 0-.223-.527.718.718 0 0 0-.527-.223.712.712 0 0 0-.533.223.727.727 0 0 0-.217.527c0 .211.072.389.217.533A.722.722 0 0 0 2.25 15a.727.727 0 0 0 .527-.217A.712.712 0 0 0 3 14.25zm1.875-6v7.5a.718.718 0 0 1-.223.527.718.718 0 0 1-.527.223H.75a.718.718 0 0 1-.527-.223A.718.718 0 0 1 0 15.75v-7.5c0-.203.074-.379.223-.527A.718.718 0 0 1 .75 7.5h3.375c.203 0 .379.074.527.223a.718.718 0 0 1 .223.527zm13.875 0c0 .672-.215 1.254-.645 1.746.118.344.176.641.176.891a2.425 2.425 0 0 1-.504 1.605c.133.438.133.895 0 1.371a2.282 2.282 0 0 1-.632 1.102c.07.875-.122 1.582-.575 2.121-.5.594-1.269.898-2.308.914H12.75a8.7 8.7 0 0 1-1.687-.182 14.934 14.934 0 0 1-1.424-.339 66.51 66.51 0 0 1-1.412-.463c-.961-.336-1.579-.508-1.852-.516a.773.773 0 0 1-.527-.229.698.698 0 0 1-.223-.521V8.238c0-.195.07-.365.211-.509a.77.77 0 0 1 .504-.241c.187-.015.484-.246.89-.691.407-.445.801-.918 1.184-1.418.531-.68.926-1.149 1.184-1.406.14-.141.261-.328.363-.563.102-.234.17-.424.205-.568.035-.145.088-.381.158-.709a11.6 11.6 0 0 1 .147-.715c.043-.172.119-.375.228-.609.11-.235.242-.43.399-.586A.718.718 0 0 1 11.625 0c.359 0 .682.041.967.123.285.082.519.184.703.305.184.121.34.279.469.474.129.196.222.371.281.528.059.156.105.351.141.586.035.234.054.41.058.527.004.117.006.269.006.457 0 .297-.037.594-.111.891a4.897 4.897 0 0 1-.223.703 9.853 9.853 0 0 1-.439.867c-.055.094-.098.18-.129.258a2.701 2.701 0 0 0-.094.281H16.5c.609 0 1.137.223 1.582.668.445.445.668.973.668 1.582z" fill-rule="nonzero"/></g></svg>
